X: 1908
T: Arra Mountains, The
R: slip jig
M: 9/8
K: Adorian
|:EAA EAB ~c3|EAA EAF GED|EAA EAB c2d|1 efe {/g}efg dBG:|2 efe {/g}efg dcB||
|:A2a gef ~g3|agf g2 A Bcd|ede fdf ~g3|1 def gfe dcB:|2 def gfe dBG||

